!!!!SEGMENT: pl-wtm--r-1461--037_stefani-jozef--wszechstronne-cwiczenia-glosowe-recitativo.krn
!!!cenid: 18xx:2213
!!!COM: Stefani, Józef
!!!COM-rismID: pe30024097
!!!CDT: 1800/04/16-1876/03/19
!!!CNT: Polish
!!!GTL: Wszechstronne ćwiczenia głosowe
!!!OTL: Recitativo
!!!PDT:
!!!AGN: Secular
!!!SMS-siglum: PL-Wtm
!!!SMS-shelfmark: R 1461
!!!SMS-shelfwork: 037 G
!!!SMS-variant:
!!!SMS-altvar:
!!!NIFC-rismSourceID: 1001120710
!!!NIFC-islandoraID: pl-wtm:25869
!!!URL-pdf-islandora: https://repozytorium.nifc.pl/islandora/object/pl-wtm%3A25869/datastream/PDF/view
!!!URL-scan: https://polish.musicsources.pl/pl/lokalizacje/galeria/rekopisy/6276 @EN{Scan on Polish Music Sources Website} @PL{Skany w portalu Dziedzictwo Muzyki Polskiej w otwartym dostępie}
!!!ONB-nifc: UWAGA: skan 0039, s. 74
!!!OMD: Allegro.
!!!AIN: 1 empty 1 tenor
!!!key:
**kern	**kern	**dynam	**kern	**text	**text
*part2	*part2	*part2	*part1	*part1	*part1
*staff3	*staff2	*	*staff1	*staff1	*staff1
*Iempty	*Iforte	*	*Itenor	*	*
*	*I"Fortepian	*	*I"Sopran/Tenor	*	*
*clefF4	*clefG2	*	*clefG2	*	*
*k[]	*k[]	*	*k[]	*	*
*C:	*C:	*	*C:	*	*
*M4/4	*M4/4	*	*M4/4	*	*
*met(c)	*met(c)	*	*met(c)	*	*
*all\right	*all\right	*	*all\right	*	*
=1	=1	=1	=1	=1	=1
*2\right	*	*	*	*	*
!	!	!LO:DY:rj	!	!	!
2C\	4c/	f	1r	.	.
.	(<16d/LL	.	.	.	.
.	16c/	.	.	.	.
.	16B/	.	.	.	.
.	16c/JJ	.	.	.	.
4E\	16f/LL	.	.	.	.
.	16e/	.	.	.	.
.	16d/	.	.	.	.
.	16e/JJ	.	.	.	.
4G\	16a/LL	.	.	.	.
.	16g/	.	.	.	.
.	16f#X/	.	.	.	.
.	16g/JJ)	.	.	.	.
=2	=2	=2	=2	=2	=2
8c 8C\	8cc\	.	8r	.	.
!	!	!	!LO:TX:a:i:t=Recitativo	!	!
8r	8r	.	4cc\	Ach	In
4r	4r	.	.	.	.
.	.	.	8g/	on	lui
2r	2r	.	4g/	wi-	qual
.	.	.	8.f/	-dzę	can-
.	.	.	16g/	od-	-gia-
=3	=3	=3	=3	=3	=3
2r	2r	.	8f/	-cho-	-men-
.	.	.	8e/	-dzi	-to
.	.	.	4r	.	.
!	!	!LO:DY:rj	!	!	!
4C#X\	(16d/LL	f	2r	.	.
.	16c#X/	.	.	.	.
.	16B/	.	.	.	.
.	16c#/JJ	.	.	.	.
4E\	16f/LL	.	.	.	.
.	16e/	.	.	.	.
.	16d#X/	.	.	.	.
.	16e/JJ)	.	.	.	.
!!LO:LB:g=original
=4	=4	=4	=4	=4	=4
4A\	4a/	.	8r	.	.
.	.	.	8a\	Cóż	Son
*	*	*	*2\right	*	*
4r	4r	.	2ee\	pocz-	trop-
2r	2r	.	.	.	.
.	.	.	8.g/	-nę	po in-
.	.	.	16a/	stros-	-fe-
=5	=5	=5	=5	=5	=5
4r	4r	p	8g/	-ka-	-li-
.	.	.	8f/	-na	-ce
*tremolo	*tremolo	*	*	*	*
32DD/LLL	(32fLLL 32d/	.	4r	.	.
32D/	32A/	.	.	.	.
32DD/	32f 32d/	.	.	.	.
32D/	32A/	.	.	.	.
32DD/	32f 32d/	.	.	.	.
32D/	32A/	.	.	.	.
32DD/	32f 32d/	.	.	.	.
32D/	32A/	.	.	.	.
32DD/	32f 32d/	.	16r	.	.
32D/	32A/	.	.	.	.
32DD/	32f 32d/	.	16f/	A-	Ter-
32D/	32A/	.	.	.	.
32DD/	32f 32d/	.	16f/	-le	-ri-
32D/	32A/	.	.	.	.
32DD/	32f 32d/	.	16f/	ta	-bi-
32D/	32A/	.	.	.	.
32DD/	32f 32d/	.	(16.f/LL	na-	-le
32D/	32A/	.	.	.	.
32DD/	32f 32d/	.	.	.	.
32D/	32A/	.	32dd/JJk)	.	.
32DD/	32f 32d/	.	8dd\	-gła	tor-
32D/	32A/	.	.	.	.
32DD/	32f 32d/	.	.	.	.
32D/JJJ	32A/JJJ)	.	.	.	.
*Xtremolo	*Xtremolo	*	*	*	*
!!LO:LB:g=original
=6	=6	=6	=6	=6	=6
!	!	!LO:DY:rj	!	!	!
4.G 4.GG\	4.f 4.d 4.G/	f	4cc\	zmia-	-men-
.	.	.	8b\	-na	-to
8r	8r	.	8r	.	.
2r	2r	.	4.dd\	py-	Il
.	.	.	8f/	-tam	cor
=7	=7	=7	=7	=7	=7
1r	1r	.	(2f/	zkąd	mi-
.	.	.	8f/L	.	.
.	.	.	16g/L	.	.
.	.	.	16f/JJ	.	.
.	.	.	8e/)	.	-o
.	.	.	8f/	po-	pre-
=8	=8	=8	=8	=8	=8
8.r	8.r	.	8a/	-cho-	-di-
.	.	.	8g/	-dzi?	-ce
*clefG2	*	*	*	*	*
16c/	(16cc\	.	.	.	.
4d/	4dd\)	.	4r	.	.
8.G/L	8.g/L	.	2r	.	.
16A/Jk	16a/Jk	.	.	.	.
4B-X/	4b-X/	.	.	.	.
!!LO:LB:g=original
=9	=9	=9	=9	=9	=9
!LO:CL:ed	!	!	!	!	!
*clefF4	*	*	*	*	*
8G 8GG\	8e 8d 8B-X/	.	1r	.	.
8r	8r	.	.	.	.
4r	4r	.	.	.	.
4G 4E 4AA\	4a 4c#X 4A/	.	.	.	.
4r	4r	.	.	.	.
==	==	==	==	==	==
*-	*-	*-	*-	*-	*-
!!!system-decoration: <s1>{(s2,s3)}
!!!RDF**kern: > = above
!!!RDF**kern: < = below
!!!ENC: Andrzej Kubiczek
!!!END: 2021-06-04
!!!ENC: Mateusz Solarz
!!!END: 2021-05-19
!!!YEC: Copyright 2022 Narodowy Instytut Fryderyka Chopina (https://polishscores.org)
!!!YEM: Licence CC BY 4.0 (https://creativecommons.org/licenses/by/4.0)
